packages/kaspersky-hexa-ui-icons/src/iconsSVGs/24/Telegram.svg

<svg width="24" height="24" viewBox="0 0 24 24" fill="none" xmlns="http://www.w3.org/2000/svg">
<path fill-rule="evenodd" clip-rule="evenodd" d="M2.98192 11.1005C7.97251 8.92618 11.3004 7.49273 12.9654 6.80016C17.7196 4.82274 18.7075 4.47924 19.3514 4.46789C19.493 4.4654 19.8096 4.5005 20.0148 4.66693C20.1879 4.80746 20.2356 4.9973 20.2584 5.13054C20.2812 5.26378 20.3096 5.5673 20.287 5.80446C20.0294 8.51141 18.9146 15.0805 18.3475 18.1123C18.1075 19.3952 17.635 19.8253 17.1776 19.8674C16.1834 19.9589 15.4285 19.2104 14.4656 18.5792C12.9589 17.5916 12.1077 16.9767 10.6452 16.0129C8.95501 14.8991 10.0507 14.287 11.0139 13.2865C11.266 13.0247 15.6462 9.04053 15.731 8.6791C15.7416 8.6339 15.7515 8.46541 15.6514 8.37644C15.5513 8.28747 15.4035 8.31789 15.2969 8.34209C15.1458 8.37639 12.7388 9.96732 8.07594 13.1149C7.39273 13.584 6.77389 13.8126 6.21944 13.8006C5.60819 13.7874 4.43241 13.455 3.55833 13.1709C2.48624 12.8224 1.63416 12.6382 1.70836 12.0463C1.74701 11.738 2.17153 11.4228 2.98192 11.1005Z" fill="black"/>
</svg>

<svg xmlns="http://www.w3.org/2000/svg" width="24" height="24" fill="none" viewBox="0 0 24 24"><path fill="#000" fill-rule="evenodd" d="M2.982 11.1005q7.4858-3.2615 9.9834-4.3003c4.7542-1.9775 5.7421-2.321 6.386-2.3323.1416-.0025.4582.0326.6634.199.1731.1406.2208.3304.2436.4636.0228.1333.0512.4368.0286.674-.2576 2.707-1.3724 9.276-1.9395 12.3078-.24 1.2829-.7125 1.713-1.1699 1.7551-.9942.0915-1.7491-.657-2.712-1.2882-1.5067-.9876-2.3579-1.6025-3.8204-2.5663-1.6902-1.1138-.5945-1.7259.3687-2.7264.2521-.2618 4.6323-4.246 4.7171-4.6074.0106-.0452.0205-.2137-.0796-.3027s-.2479-.0585-.3545-.0343q-.2266.0514-7.221 4.7728-1.0248.7037-1.8565.6857c-.6112-.0132-1.787-.3456-2.661-.6297-1.0722-.3485-1.9242-.5327-1.85-1.1246q.0579-.4624 1.2735-.9458" clip-rule="evenodd"/></svg>
